X:538
T:Jim Conroy's
T:Jack Coen's Jig
R:jig
S:Lari Candelay
Z:id:hn-jig-538
M:6/8
L:1/8
K:G
ded cAF | ~G3 FEF | DGB DGB | cdc ABc |
ded cAF | ~G3 FEF | DGB Bcd | cAF G3 :|
|: GB/c/d ~g3 | GBd cAF | GBd ~g3 | f/g/af gdB |
GBd ~g3 | GBd cAF | DGB Bcd | cAF G3 :|

